X: 1
T: the Dissent
C: Andy Reiner (2017)
R: reel
Z: 2017 John Chambers <jc:trillian.mit.edu>
M: C|
L: 1/8
K: Am
"A"|:\
   "Am"A2ag edce | "D"cdde dcAG | "F"F2Ac "Em"E2Ac |\
[1,3 "Dm"DFAc "E"BA^GB :|2,4 "E"BA^GB "Am"A4 :|
"B"|:\
   "Am"Acde cA A/A/A | _Acde cA A/A/A | "C"Gcde cG G/G/G | "D"^Fcde cF F/F/F |
[1 "F"=Fcde cF F/F/F | "Em"EBcd BE E/E/E | "Dm"DFAc dcAF | "E"E^GBe fedB :|
[2 "F"=Fcde Fcde | "Em"EBcd EBcd | "Dm" DFAc dcAF | "E"E^GBe fedB |]
